Newaita-dark/actions/scalable/stroke-cap-butt.svg

<?xml version="1.0" encoding="UTF-8"?>
<svg xmlns="http://www.w3.org/2000/svg" xmlns:xlink="http://www.w3.org/1999/xlink" width="512pt" height="512pt" viewBox="0 0 512 512" version="1.1">
<g id="surface1">
<path style=" stroke:none;fill-rule:nonzero;fill:rgb(74.117649%,74.117649%,74.117649%);fill-opacity:1;" d="M 169.347656 35.753906 L 169.347656 67.507812 L 84.675781 67.507812 L 84.675781 490.878906 L 211.6875 490.878906 L 211.6875 67.507812 L 296.363281 67.507812 L 296.363281 490.878906 L 423.375 490.878906 L 423.375 67.507812 L 338.699219 67.507812 L 338.699219 35.753906 Z M 127.011719 99.257812 L 169.347656 99.257812 C 175.214844 99.257812 179.933594 103.980469 179.933594 109.84375 L 179.933594 448.542969 C 179.933594 454.40625 175.214844 459.125 169.347656 459.125 L 127.011719 459.125 C 121.148438 459.125 116.429688 454.40625 116.429688 448.542969 L 116.429688 109.84375 C 116.429688 103.980469 121.148438 99.257812 127.011719 99.257812 Z M 338.699219 99.257812 L 381.035156 99.257812 C 386.898438 99.257812 391.621094 103.980469 391.621094 109.84375 L 391.621094 448.542969 C 391.621094 454.40625 386.898438 459.125 381.035156 459.125 L 338.699219 459.125 C 332.835938 459.125 328.113281 454.40625 328.113281 448.542969 L 328.113281 109.84375 C 328.113281 103.980469 332.835938 99.257812 338.699219 99.257812 Z M 338.699219 99.257812 "/>
</g>
</svg>

<svg xmlns="http://www.w3.org/2000/svg" width="512pt" height="512pt" viewBox="0 0 512 512"><path d="M169.348 35.754v31.754H84.676v423.37h127.011V67.509h84.676v423.37h127.012V67.509h-84.676V35.754zm-42.336 63.504h42.336a10.562 10.562 0 0 1 10.586 10.586v338.699a10.559 10.559 0 0 1-10.586 10.582h-42.336a10.558 10.558 0 0 1-10.582-10.582v-338.7a10.561 10.561 0 0 1 10.582-10.585zm211.687 0h42.336a10.564 10.564 0 0 1 10.586 10.586v338.699a10.561 10.561 0 0 1-10.586 10.582H338.7a10.561 10.561 0 0 1-10.586-10.582v-338.7A10.564 10.564 0 0 1 338.7 99.259zm0 0" fill="#bdbdbd"/></svg>
